X:1
T:Flight of the Bumblebee
C:Nikolai Rimsky-Korsakov
M:2/4
L:1/16
Q:1/4=176
K:Am
A^G=G^F =FE_ED | D_E=EF ^FG^GA | A^G=G^F =FE_ED | D_E=EF ^FG^GA |
ABcd cBAG | AGFE DEDC | ABcd cBAG | FEDC DEFG |
A^G=G^F =FE_ED | D_E=EF ^FG^GA | A^G=G^F =FE_ED | D_E=EF ^FG^GA |
AGFE DEDC | ABc^c d=cBA | FEDC D_E=EF | A8 |]
